X: 9416
T: Daniel Pearl Dedication Tune
R: waltz
M: 3/4
K: Amajor
|:"A"c>A (3AAA B>A|F<A B2 E>D|C>A"D/A"D>A (3AAG|F<A "E/A"B2 B/c/d|
"A"c>A (3AAA B>A|F<A B2 E>D|C>A"D/A"D>A (3AAB|"E/A"A<G "A"A2 A2:|
"D"f>A (3AAA B>A|A<e "A/E"c2 B>A|"A/G#"E<A (3AAA B>A|A<d c2 B>A|
"D"f>A (3AAA B>A|A<e "A/E"c2 B>A|C>A"D/F#"D>A (3AAB|"E/G#"A<G "A"A2 A2|
"D"f>A (3AAA B>A|A<e "A/E"c2 B>A|"F#"E<A (3AAA B>A|A<d "A/C#"c2 B>A|
"D"f>A (3AAA B>A|A<e "A/E"c2 B>A|C>A"D"D>A (3AAB|"Esus"A<G A2 A2||

